polaris-icons/icons/OrderedListMajor.svg

<svg viewBox="0 0 20 20" xmlns="http://www.w3.org/2000/svg">
<path fill-rule="evenodd" clip-rule="evenodd" d="M7 5C7 4.58579 7.33579 4.25 7.75 4.25H16.25C16.6642 4.25 17 4.58579 17 5C17 5.41421 16.6642 5.75 16.25 5.75H7.75C7.33579 5.75 7 5.41421 7 5Z" fill="#5C5F62"/>
<path fill-rule="evenodd" clip-rule="evenodd" d="M7 10C7 9.58579 7.33579 9.25 7.75 9.25H16.25C16.6642 9.25 17 9.58579 17 10C17 10.4142 16.6642 10.75 16.25 10.75H7.75C7.33579 10.75 7 10.4142 7 10Z" fill="#5C5F62"/>
<path fill-rule="evenodd" clip-rule="evenodd" d="M7 15C7 14.5858 7.33579 14.25 7.75 14.25H16.25C16.6642 14.25 17 14.5858 17 15C17 15.4142 16.6642 15.75 16.25 15.75H7.75C7.33579 15.75 7 15.4142 7 15Z" fill="#5C5F62"/>
<path d="M3.75003 3.37999L3.55003 3.52999C3.32912 3.69568 3.01571 3.65091 2.85003 3.42999C2.68434 3.20908 2.72912 2.89568 2.95003 2.72999L3.55003 2.27999C4.04446 1.90917 4.75003 2.26196 4.75003 2.87999V5.87999H5.25003C5.52617 5.87999 5.75003 6.10385 5.75003 6.37999C5.75003 6.65614 5.52617 6.87999 5.25003 6.87999H3.25003C2.97389 6.87999 2.75003 6.65614 2.75003 6.37999C2.75003 6.10385 2.97389 5.87999 3.25003 5.87999H3.75003V3.37999Z" fill="#5C5F62"/>
<path d="M2.75 9.25C2.75 8.42157 3.42157 7.75 4.25 7.75C5.07843 7.75 5.75 8.42157 5.75 9.25V9.30093C5.75 9.72939 5.56678 10.1374 5.24655 10.422L4.3151 11.25H5.25C5.52614 11.25 5.75 11.4739 5.75 11.75C5.75 12.0261 5.52614 12.25 5.25 12.25H3.65755C2.96791 12.25 2.64384 11.3976 3.15928 10.9394L4.58218 9.67464C4.68893 9.57975 4.75 9.44375 4.75 9.30093V9.25C4.75 8.97386 4.52614 8.75 4.25 8.75C3.97386 8.75 3.75 8.97386 3.75 9.25C3.75 9.52614 3.52614 9.75 3.25 9.75C2.97386 9.75 2.75 9.52614 2.75 9.25Z" fill="#5C5F62"/>
<path d="M3.25 13.13C2.97386 13.13 2.75 13.3539 2.75 13.63C2.75 13.9061 2.97386 14.13 3.25 14.13H4.43756C4.60386 14.13 4.75 14.2715 4.75 14.4503C4.75 14.6284 4.65534 14.7915 4.5106 14.88H3.75C3.47386 14.88 3.25 15.1039 3.25 15.38C3.25 15.6561 3.47386 15.88 3.75 15.88H4.5106C4.65534 15.9685 4.75 16.1316 4.75 16.3097C4.75 16.4885 4.60386 16.63 4.43756 16.63H3.25C2.97386 16.63 2.75 16.8539 2.75 17.13C2.75 17.4061 2.97386 17.63 3.25 17.63H4.43756C5.16866 17.63 5.75 17.0282 5.75 16.3097C5.75 15.9675 5.63298 15.6408 5.42869 15.38C5.63298 15.1192 5.75 14.7925 5.75 14.4503C5.75 13.7318 5.16866 13.13 4.43756 13.13H3.25Z" fill="#5C5F62"/>
</svg>

<svg xmlns="http://www.w3.org/2000/svg" viewBox="0 0 20 20"><path fill="#5C5F62" fill-rule="evenodd" d="M7 5a.75.75 0 0 1 .75-.75h8.5a.75.75 0 0 1 0 1.5h-8.5A.75.75 0 0 1 7 5ZM7 10a.75.75 0 0 1 .75-.75h8.5a.75.75 0 0 1 0 1.5h-8.5A.75.75 0 0 1 7 10ZM7 15a.75.75 0 0 1 .75-.75h8.5a.75.75 0 0 1 0 1.5h-8.5A.75.75 0 0 1 7 15Z" clip-rule="evenodd"/><path fill="#5C5F62" d="m3.75 3.38-.2.15a.5.5 0 1 1-.6-.8l.6-.45a.75.75 0 0 1 1.2.6v3h.5a.5.5 0 0 1 0 1h-2a.5.5 0 1 1 0-1h.5v-2.5ZM2.75 9.25a1.5 1.5 0 1 1 3 0v.05a1.5 1.5 0 0 1-.503 1.122l-.932.828h.935a.5.5 0 0 1 0 1H3.658c-.69 0-1.014-.852-.499-1.31l1.423-1.265A.5.5 0 0 0 4.75 9.3V9.25a.5.5 0 0 0-1 0 .5.5 0 0 1-1 0ZM3.25 13.13a.5.5 0 0 0 0 1h1.188a.32.32 0 0 1 .312.32.506.506 0 0 1-.24.43h-.76a.5.5 0 0 0 0 1h.76c.145.088.24.252.24.43a.32.32 0 0 1-.312.32H3.25a.5.5 0 0 0 0 1h1.188a1.32 1.32 0 0 0 1.312-1.32 1.51 1.51 0 0 0-.321-.93 1.51 1.51 0 0 0 .321-.93 1.32 1.32 0 0 0-1.312-1.32H3.25Z"/></svg>
